X: 2
T: Tommy Peoples'
R: reel
M: 4/4
L: 1/8
K: Bmin
~B3c dBAF|~B3c dfec|~B3c dcdB|ABde fdec:||:dfaf bfaf|dfaf g2fg|afge dcdB|ABde fdec:|


Tune 192	Setting 12847

